X:1
T:Juninatt
T:W. Peterson-Berger (1867-1942)
T:Juninatt
T:©CPDL Edition may be freely distributed, duplicated, performed and recorded PA Aglert
T:©CPDL Edition may be freely distributed, duplicated, performed and recorded PA Aglert
T:©CPDL Edition may be freely distributed, duplicated, performed and recorded PA Aglert
T:©CPDL Edition may be freely distributed, duplicated, performed and recorded PA Aglert
T:©CPDL Edition may be freely distributed, duplicated, performed and recorded PA Aglert
C:W. Peterson-Berger (1867-1942)
Z:©CPDL Edition may be freely distributed, duplicated, performed and recorded
Z:PA Aglert
%%score [ 1 2 3 4 ]
L:1/8
Q:1/4=120
M:3/4
K:D
V:1 treble nm="S"
V:2 treble nm="A"
V:3 treble-8 nm="T"
V:4 bass nm="B"
V:1
"^Andante con moto."!p! D2 | D>D DD DD | D4- D!pp!D/D/ |!<(! E3 E F!<)!F | %4
w: En|flic- ka sjöng i grö- nan|skog _ i den|stil- la, lju- sa|
w: Vad|sjöng väl flic- kan nat- ten|lång, _ den- na|stil- la, lju- sa|
!mf!!>(! A>_A!>)!!p! G3 G | FG/F/ E2!<(! DE | F(G/!<)!F/)!f! E3!pp! ^E/E/ |!<(! F3 A c!<)!B | %8
w: ju- ni- natt. I|gra- nar- nas top- par en|va- ka _ slog i den|stil- la, lju- sa|
w: ju- ni- natt? Vad|hör- de jag tju- sad i|va- kans _ sång den- na|stil- la, lju- sa|
!>(! G4!>)! G2 |!pp! F4 z!p! F | G>G G2 G2 | F3 F FF |!mf! G>G G2!>(! G2!>)! |!p! F3 F F!p!F | %14
w: ju- ni-|natt. Vid|flic- kans sång teg|få- geln still; teg|hon, då slog han|strax sin drill, vid|
w: ju- ni-|natt? Den|e- na sjöng om|sol och vår, den|and- ra om sitt|hjär- te- sår, den|
!<(! F>F G2!<)! F2 |!f! d>c B3!>(! F!>)! |!mp! E>!>(!E FE FE!>)! |!p! A4!>(! A2!>)! | %18
w: flic- kans sång teg|få- geln still, teg|hon, då slog han strax sin|drill. Och|
w: e- na sjöng om|sol och vår, den|and- ra om sitt hjär- te-|sår. Hur|
!pp! B>c A2 A2 | B>c A3!>(! A!>)! |!mf! d3 B GB | A>F A3 A |!>(! G3 G FF | E4 F2!>)! | %24
w: den- na klang och|å- ter- klang i|dröm- ljust fjär- ran|ljuvt för- klang, i|dröm- ljust fjär- ran|ljuvt för-|
w: den- na klang min|själ be- tvang, jag|ald- rig, ald- rig,|glöm- ma kan, jag|ald- rig, ald- rig,|glöm- ma|
!pp!!>(! !fermata!F4!>)! z2 |] %25
w: klang.|
w: kan!|
V:2
!p! D2 | D>D DD DD | D4- D!pp!D/D/ |!<(! D3 D DD!<)! |!mf!!>(! D>D!>)!!p! D3 D | DD/D/ D2!<(! DD | %6
w: En|flic- ka sjöng i grö- nan|skog _ i den|stil- la, lju- sa|ju- ni- natt. I|gra- nar- nas top- par en|
w: Vad|sjöng väl flic- kan nat- ten|lång, _ den- na|stil- la, lju- sa|ju- ni- natt? Vad|hör- de jag tju- sad i|
 DD!<)!!f! D3!pp! D/D/ |!<(! D3 D D!<)!D |!>(! (D2 B,2) C2!>)! |!pp! D4 z!p! D | C>C C2 C2 | %11
w: va- ka slog i den|stil- la, lju- sa|ju- * ni-|natt. Vid|flic- kans sång teg|
w: va- kans sång den- na|stil- la, lju- sa|ju- * ni-|natt? Den|e- na sjöng om|
 D3 D DD |!mf! B,>B, B,2!>(! B,2!>)! |!p! D3 D D!p!D |!<(! E>E E2 E2!<)! |!f! D>D D3!>(! D!>)! | %16
w: få- geln still; teg|hon, då slog han|strax sin drill, vid|flic- kans sång teg|få- geln still, teg|
w: sol och vår, den|and- ra om sitt|hjär- te- sår, den|e- na sjöng om|sol och vår, den|
!mp! D>!>(!D DD DD!>)! |!p! C4!>(! E2!>)! |!pp! G>G G2 G2 | G>G G3!>(! G!>)! |!mf! G3 G GG | %21
w: hon, då slog han strax sin|drill. Och|den- na klang och|å- ter- klang i|dröm- ljust fjär- ran|
w: and- ra om sitt hjär- te-|sår. Hur|den- na klang min|själ be- tvang, jag|ald- rig, ald- rig,|
 F>D F3 F |!>(! D3 D DD | D4 C2!>)! |!pp!!>(! !fermata!D4!>)! z2 |] %25
w: ljuvt för- klang, i|dröm- ljust fjär- ran|ljuvt för-|klang.|
w: glöm- ma kan, jag|ald- rig, ald- rig,|glöm- ma|kan!|
V:3
!p! d2 | d>d dd cB | A4- A!pp!A/A/ |!<(! B3 B =cc!<)! |!mf!!>(! B>d!>)!!p! d3 d | dd/d/ B2!<(! AB | %6
w: En|flic- ka sjöng i grö- nan|skog _ i den|stil- la, lju- sa|ju- ni- natt. I|gra- nar- nas top- par en|
w: Vad|sjöng väl flic- kan nat- ten|lång, _ den- na|stil- la, lju- sa|ju- ni- natt? Vad|hör- de jag tju- sad i|
 dd!<)!!f! B3!pp! B/B/ |!<(! A3 F =F!<)!F |!>(! E4!>)! A2 |!pp! A4!mf! A2 | A3 c BA | B>d A3!f! f | %12
w: va- ka slog i den|stil- la, lju- sa|ju- ni-|natt. Vid|flic- kans sång teg|få- geln still; teg|
w: va- kans sång den- na|stil- la, lju- sa|ju- ni-|natt? Den|e- na sjöng om|sol och vår, den|
 f3 e!>(! d!>)!B | c>B A3!p! A |!<(! ^A>A B2!<)! A2 |!f! F3!<(! F!<)! B!>(!B!>)! | %16
w: hon, då slog han|strax sin drill, vid|flic- kans sång teg|få- geln still, teg|
w: and- ra om sitt|hjär- te- sår, den|e- na sjöng om|sol och vår, den|
!mp! B>!>(!B BB BB!>)! |!p! A4!>(! c2!>)! |!pp! d>d c2 c2 | d>d c3!>(! c!>)! |!mf! B3 d Bc | %21
w: hon, då slog han strax sin|drill. Och|den- na klang och|å- ter- klang i|dröm- ljust fjär- ran|
w: and- ra om sitt hjär- te-|sår. Hur|den- na klang min|själ be- tvang, jag|ald- rig, ald- rig,|
 d>A d3 d |!>(! B3 B AA | ^G4 A2!>)! |!pp!!>(! !fermata!A4!>)! z2 |] %25
w: ljuvt för- klang, i|dröm- ljust fjär- ran|ljuvt för-|klang.|
w: glöm- ma kan, jag|ald- rig, ald- rig,|glöm- ma|kan!|
V:4
!p! D2 | D>D CB, A,G, | F,4- F,!pp!F,/F,/ |!<(! G,3 G, A,A,!<)! |!mf!!>(! B,>B,!>)!!p! B,3 B, | %5
w: En|flic- ka sjöng i grö- nan|skog _ i den|stil- la, lju- sa|ju- ni- natt. I|
w: Vad|sjöng väl flic- kan nat- ten|lång, _ den- na|stil- la, lju- sa|ju- ni- natt? Vad|
 A,B,/A,/ G,2!<(! F,G, | A,(B,/!<)!A,/)!f! ^G,3!pp! G,/G,/ |!<(! A,3 A,, A,,!<)!A,, | %8
w: gra- nar- nas top- par en|va- ka _ slog i den|stil- la, lju- sa|
w: hör- de jag tju- sad i|va- kans _ sång den- na|stil- la, lju- sa|
!>(! A,,4!>)! A,,2 |!pp! D,4 z!p! D, | D,>D, D,2 D,2 | D,3 D, D,D, |!mf! D,>D, D,2!>(! D,2!>)! | %13
w: ju- ni-|natt. Vid|flic- kans sång teg|få- geln still; teg|hon, då slog han|
w: ju- ni-|natt? Den|e- na sjöng om|sol och vår, den|and- ra om sitt|
!p! D,3 D, D,!p!D, |!<(! C,>C, C,2!<)! F,2 |!f! B,,3!<(! F,!<)! B,!>(!!courtesy!=A,!>)! | %16
w: strax sin drill, vid|flic- kans sång teg|få- geln still, teg|
w: hjär- te- sår, den|e- na sjöng om|sol och vår, den|
!mp! ^G,>!>(!G, A,G, A,!>)!G, |!p! A,4!>(! A,2!>)! |!pp! C,>C, A,2 A,2 | E,>E, A,3!>(! A,!>)! | %20
w: hon, då slog han strax sin|drill. Och|den- na klang och|å- ter- klang i|
w: and- ra om sitt hjär- te-|sår. Hur|den- na klang min|själ be- tvang, jag|
!mf! D,3 D, D,D, | D,>D, D,3!>(! D, | D,3 D, D,D,!>)! |!p!!<(! (B,,2!<)! _B,,2)!>(! A,,2!>)! | %24
w: dröm- ljust fjär- ran|ljuvt för- klang, i|dröm- ljust fjär- ran|ljuvt _ för-|
w: ald- rig, ald- rig,|glöm- ma kan, jag|ald- rig, ald- rig,|glöm- * ma|
!pp!!>(! !fermata!D,4!>)! z2 |] %25
w: klang.|
w: kan!|

